frontend/src/assets/Routen.svg

<svg width="20" height="21" viewBox="0 0 20 21" fill="none" xmlns="http://www.w3.org/2000/svg">
<path d="M19.7025 10.2901L10.7025 1.29006C10.3125 0.900059 9.6825 0.900059 9.2925 1.29006L0.2925 10.2901C-0.0975 10.6801 -0.0975 11.3101 0.2925 11.7001L9.2925 20.7001C9.6825 21.0901 10.3125 21.0901 10.7025 20.7001L19.7025 11.7001C20.0925 11.3201 20.0925 10.6901 19.7025 10.2901ZM11.9925 13.5001V11.0001H7.9925V14.0001H5.9925V10.0001C5.9925 9.45006 6.4425 9.00006 6.9925 9.00006H11.9925V6.50006L15.4925 10.0001L11.9925 13.5001Z" fill="white"/>
</svg>

<svg xmlns="http://www.w3.org/2000/svg" width="20" height="21" fill="none" viewBox="0 0 20 21"><path fill="#fff" d="m19.703 10.29-9-9a.996.996 0 0 0-1.41 0l-9 9a.996.996 0 0 0 0 1.41l9 9c.39.39 1.02.39 1.41 0l9-9a.996.996 0 0 0 0-1.41m-7.71 3.21V11h-4v3h-2v-4c0-.55.45-1 1-1h5V6.5l3.5 3.5z"/></svg>
